icons/lines/row-vertical.svg

<svg xmlns="http://www.w3.org/2000/svg" width="24" height="24" viewBox="0 0 24 24" fill="none" stroke="currentColor" stroke-width="2" stroke-linecap="round" stroke-linejoin="round">
  <path d="M4.1 13.5c-1.5 0-2.1.64-2.1 2.23v4.04C2 21.36 2.6 22 4.1 22h15.8c1.5 0 2.1-.64 2.1-2.23v-4.04c0-1.59-.6-2.23-2.1-2.23z" />
  <path d="M4.1 2C2.6 2 2 2.64 2 4.23v4.04c0 1.59.6 2.23 2.1 2.23h15.8c1.5 0 2.1-.64 2.1-2.23V4.23C22 2.64 21.4 2 19.9 2z" />
</svg>

<svg xmlns="http://www.w3.org/2000/svg" width="24" height="24" viewBox="0 0 24 24" fill="none" stroke="currentColor" stroke-width="2" stroke-linecap="round" stroke-linejoin="round" >
  <path d="M19.9 13.5H4.1C2.6 13.5 2 14.14 2 15.73V19.77C2 21.36 2.6 22 4.1 22H19.9C21.4 22 22 21.36 22 19.77V15.73C22 14.14 21.4 13.5 19.9 13.5Z"/>
  <path d="M19.9 2H4.1C2.6 2 2 2.64 2 4.23V8.27C2 9.86 2.6 10.5 4.1 10.5H19.9C21.4 10.5 22 9.86 22 8.27V4.23C22 2.64 21.4 2 19.9 2Z"/>
  </svg>
